src/22/panel/indicator-workspaces-4.svg

<svg xmlns="http://www.w3.org/2000/svg" width="22" height="22"><defs><style id="current-color-scheme" type="text/css">.ColorScheme-Text{color:#dfdfdf;}.ColorScheme-Highlight{color:#5294e2;}</style></defs><defs><style id="current-color-scheme" type="text/css"></style></defs><path d="M5 3c-1.108 0-2 .892-2 2v9c0 1.108.892 2 2 2h4l-2.29 2c-1.036.906-.946 1 0 1h7.58c.946 0 .946 0 0-1L12 16h4c1.108 0 2-.892 2-2V5c0-1.108-.892-2-2-2H5zm0 2h11v9H5V5zm3 1v4h4v3h1V6h-1v3H9V6H8z" fill="currentColor" class="ColorScheme-Text"/></svg>

<svg xmlns="http://www.w3.org/2000/svg" width="22" height="22" version="1.1">
 <defs>
  <style id="current-color-scheme" type="text/css">
   .ColorScheme-Text { color:#dfdfdf; } .ColorScheme-Highlight { color:#4285f4; }
  </style>
 </defs>
 <path style="fill:currentColor" class="ColorScheme-Text" d="M 5 3 C 3.892 3 3 3.892 3 5 L 3 14 C 3 15.108 3.892 16 5 16 L 9 16 L 6.7109375 18 C 5.6735246 18.9062 5.7635691 19 6.7109375 19 L 14.289062 19 C 15.236431 19 15.23643 19 14.289062 18 L 12 16 L 16 16 C 17.108 16 18 15.108 18 14 L 18 5 C 18 3.892 17.108 3 16 3 L 5 3 z M 5 5 L 16 5 L 16 14 L 5 14 L 5 5 z M 8 6 L 8 10 L 9 10 L 12 10 L 12 13 L 13 13 L 13 8 L 13 6 L 12 6 L 12 9 L 9 9 L 9 6 L 8 6 z"/>
</svg>
